X: 14
T:Grimstock
M:6/8
L:1/8
Q:95
R:Jig
H:The A strain appears titled "CLIV Courante" in Michael Praetorius's
H:"Terpsichore" (1612).
K:G
g2f g2d|e>fg f2d|B>cd e2d|cdB c2B|g2f g2d|e>fg f2d|B>cd e2d|c>BA G3||
GGA BGA|BGA BGA|GGA BGA|BGA G3||

